X:199
T:Mazurka de Barbary
R:Mazurka 32
L:1/8
M:3/4
N:Also known as Dziekowice, Mazurka Auvergnate,Skelton's. In massif Central book 1 # ?74
O:France
K:Gmaj
|:DGGF G2|DBBA B2|cBAG FG|AGFE D2|DGGF G2|DBBA B2|
cBAG FA|1 G3z GE:|2 G3z Bc|:d2de dc|B2G2 AB|c2cd cB|
A3z Bc|d2de dc|B2G2 AB|cBAG FA|1 G3z Bc:|2 G4z2||

